svgs/regular/piano-keyboard.svg

<svg xmlns="http://www.w3.org/2000/svg" viewBox="0 0 576 512"><!--! Font Awesome Pro 6.0.0-alpha3 by @fontawesome - https://fontawesome.com License - https://fontawesome.com/license (Commercial License) --><path d="M512 64H64C28.8 64 0 92.8 0 128v256c0 35.2 28.8 64 64 64h448c35.2 0 64-28.8 64-64V128C576 92.8 547.2 64 512 64zM144 400H64c-8.837 0-16-7.163-16-16V224H128v80C128 312.9 135.1 320 144 320V400zM272 400h-96V320C184.9 320 192 312.9 192 304V224h64v80C256 312.9 263.1 320 272 320V400zM400 400h-96V320c8.875 0 16-7.125 16-16V224h64v80c0 8.875 7.125 16 16 16V400zM512 400h-80V320c8.875 0 16-7.125 16-16V224h80v160C528 392.8 520.8 400 512 400zM528 176h-480V128c0-8.837 7.163-16 16-16h448c8.837 0 16 7.163 16 16V176z"/></svg>

<svg xmlns="http://www.w3.org/2000/svg" viewBox="0 0 576 512"><!-- Font Awesome Pro 5.15.3 by @fontawesome - https://fontawesome.com License - https://fontawesome.com/license (Commercial License) --><path d="M544 64H32A32 32 0 0 0 0 96v320a32 32 0 0 0 32 32h512a32 32 0 0 0 32-32V96a32 32 0 0 0-32-32zM144 400H48V224h80v80a16 16 0 0 0 16 16zm128 0h-96v-80a16 16 0 0 0 16-16v-80h64v80a16 16 0 0 0 16 16zm128 0h-96v-80a16 16 0 0 0 16-16v-80h64v80a16 16 0 0 0 16 16zm128 0h-96v-80a16 16 0 0 0 16-16v-80h80zm0-224H48v-64h480z"/></svg>
